<?xml version="1.0" encoding="UTF-8"?>
<map version="1.2" tiledversion="1.3.2" orientation="orthogonal" renderorder="right-down" compressionlevel="0" width="22" height="14" tilewidth="16" tileheight="16" infinite="0" nextlayerid="4" nextobjectid="1">
 <tileset firstgid="1" name="6C006D6E" tilewidth="16" tileheight="16" tilecount="1024" columns="32">
  <image source="../../../Backup maps w data/6C006D6E.png" trans="ffffff" width="512" height="512"/>
  <tile id="355">
   <properties>
    <property name="Anims1" value="5"/>
    <property name="Anims2" value="0"/>
    <property name="ChapterID" value="2"/>
    <property name="Main" value=""/>
    <property name="MapChangesID" value="0xC"/>
    <property name="MapID" value="0xB"/>
    <property name="ObjectType1" value="0x6C"/>
    <property name="ObjectType2" value="0"/>
    <property name="PaletteID" value="0x6D"/>
    <property name="TileConfig" value="0x6E"/>
   </properties>
  </tile>
 </tileset>
 <layer id="1" name="Tile Layer 1" width="22" height="14">
  <properties>
   <property name="Anims1" value="5"/>
   <property name="Anims2" value="0"/>
   <property name="ChapterID" value="2"/>
   <property name="Main" value=""/>
   <property name="MapChangesID" value="0xC"/>
   <property name="MapID" value="0xB"/>
   <property name="ObjectType1" value="0x6C"/>
   <property name="ObjectType2" value="0"/>
   <property name="PaletteID" value="0x6D"/>
   <property name="TileConfig" value="0x6E"/>
  </properties>
  <data>
   <tile gid="66"/>
   <tile gid="680"/>
   <tile gid="834"/>
   <tile gid="835"/>
   <tile gid="836"/>
   <tile gid="193"/>
   <tile gid="721"/>
   <tile gid="428"/>
   <tile gid="584"/>
   <tile gid="454"/>
   <tile gid="514"/>
   <tile gid="627"/>
   <tile gid="749"/>
   <tile gid="689"/>
   <tile gid="993"/>
   <tile gid="175"/>
   <tile gid="7"/>
   <tile gid="170"/>
   <tile gid="199"/>
   <tile gid="99"/>
   <tile gid="198"/>
   <tile gid="358"/>
   <tile gid="688"/>
   <tile gid="686"/>
   <tile gid="866"/>
   <tile gid="867"/>
   <tile gid="868"/>
   <tile gid="15"/>
   <tile gid="494"/>
   <tile gid="492"/>
   <tile gid="587"/>
   <tile gid="486"/>
   <tile gid="524"/>
   <tile gid="499"/>
   <tile gid="653"/>
   <tile gid="99"/>
   <tile gid="99"/>
   <tile gid="173"/>
   <tile gid="48"/>
   <tile gid="108"/>
   <tile gid="99"/>
   <tile gid="199"/>
   <tile gid="230"/>
   <tile gid="390"/>
   <tile gid="99"/>
   <tile gid="99"/>
   <tile gid="898"/>
   <tile gid="899"/>
   <tile gid="900"/>
   <tile gid="47"/>
   <tile gid="712"/>
   <tile gid="560"/>
   <tile gid="436"/>
   <tile gid="716"/>
   <tile gid="747"/>
   <tile gid="593"/>
   <tile gid="198"/>
   <tile gid="99"/>
   <tile gid="99"/>
   <tile gid="199"/>
   <tile gid="99"/>
   <tile gid="99"/>
   <tile gid="99"/>
   <tile gid="198"/>
   <tile gid="198"/>
   <tile gid="230"/>
   <tile gid="99"/>
   <tile gid="927"/>
   <tile gid="956"/>
   <tile gid="959"/>
   <tile gid="99"/>
   <tile gid="99"/>
   <tile gid="133"/>
   <tile gid="141"/>
   <tile gid="16"/>
   <tile gid="142"/>
   <tile gid="99"/>
   <tile gid="199"/>
   <tile gid="99"/>
   <tile gid="71"/>
   <tile gid="46"/>
   <tile gid="676"/>
   <tile gid="739"/>
   <tile gid="675"/>
   <tile gid="199"/>
   <tile gid="230"/>
   <tile gid="199"/>
   <tile gid="194"/>
   <tile gid="896"/>
   <tile gid="989"/>
   <tile gid="992"/>
   <tile gid="99"/>
   <tile gid="99"/>
   <tile gid="166"/>
   <tile gid="77"/>
   <tile gid="7"/>
   <tile gid="7"/>
   <tile gid="7"/>
   <tile gid="46"/>
   <tile gid="132"/>
   <tile gid="77"/>
   <tile gid="82"/>
   <tile gid="99"/>
   <tile gid="708"/>
   <tile gid="199"/>
   <tile gid="706"/>
   <tile gid="68"/>
   <tile gid="99"/>
   <tile gid="198"/>
   <tile gid="803"/>
   <tile gid="1020"/>
   <tile gid="1021"/>
   <tile gid="1022"/>
   <tile gid="199"/>
   <tile gid="99"/>
   <tile gid="961"/>
   <tile gid="137"/>
   <tile gid="7"/>
   <tile gid="170"/>
   <tile gid="47"/>
   <tile gid="99"/>
   <tile gid="99"/>
   <tile gid="73"/>
   <tile gid="7"/>
   <tile gid="46"/>
   <tile gid="644"/>
   <tile gid="230"/>
   <tile gid="645"/>
   <tile gid="198"/>
   <tile gid="68"/>
   <tile gid="674"/>
   <tile gid="65"/>
   <tile gid="959"/>
   <tile gid="833"/>
   <tile gid="230"/>
   <tile gid="198"/>
   <tile gid="99"/>
   <tile gid="199"/>
   <tile gid="103"/>
   <tile gid="115"/>
   <tile gid="110"/>
   <tile gid="199"/>
   <tile gid="198"/>
   <tile gid="77"/>
   <tile gid="7"/>
   <tile gid="104"/>
   <tile gid="100"/>
   <tile gid="100"/>
   <tile gid="100"/>
   <tile gid="166"/>
   <tile gid="68"/>
   <tile gid="68"/>
   <tile gid="646"/>
   <tile gid="685"/>
   <tile gid="673"/>
   <tile gid="804"/>
   <tile gid="708"/>
   <tile gid="99"/>
   <tile gid="99"/>
   <tile gid="803"/>
   <tile gid="803"/>
   <tile gid="674"/>
   <tile gid="801"/>
   <tile gid="99"/>
   <tile gid="803"/>
   <tile gid="107"/>
   <tile gid="174"/>
   <tile gid="199"/>
   <tile gid="100"/>
   <tile gid="100"/>
   <tile gid="100"/>
   <tile gid="99"/>
   <tile gid="166"/>
   <tile gid="15"/>
   <tile gid="15"/>
   <tile gid="100"/>
   <tile gid="166"/>
   <tile gid="65"/>
   <tile gid="166"/>
   <tile gid="99"/>
   <tile gid="770"/>
   <tile gid="65"/>
   <tile gid="65"/>
   <tile gid="99"/>
   <tile gid="166"/>
   <tile gid="741"/>
   <tile gid="65"/>
   <tile gid="801"/>
   <tile gid="803"/>
   <tile gid="166"/>
   <tile gid="100"/>
   <tile gid="100"/>
   <tile gid="100"/>
   <tile gid="100"/>
   <tile gid="135"/>
   <tile gid="7"/>
   <tile gid="115"/>
   <tile gid="46"/>
   <tile gid="166"/>
   <tile gid="166"/>
   <tile gid="199"/>
   <tile gid="99"/>
   <tile gid="230"/>
   <tile gid="134"/>
   <tile gid="134"/>
   <tile gid="166"/>
   <tile gid="134"/>
   <tile gid="166"/>
   <tile gid="134"/>
   <tile gid="166"/>
   <tile gid="65"/>
   <tile gid="741"/>
   <tile gid="739"/>
   <tile gid="675"/>
   <tile gid="100"/>
   <tile gid="199"/>
   <tile gid="173"/>
   <tile gid="174"/>
   <tile gid="134"/>
   <tile gid="134"/>
   <tile gid="199"/>
   <tile gid="99"/>
   <tile gid="166"/>
   <tile gid="166"/>
   <tile gid="198"/>
   <tile gid="99"/>
   <tile gid="166"/>
   <tile gid="134"/>
   <tile gid="133"/>
   <tile gid="141"/>
   <tile gid="16"/>
   <tile gid="142"/>
   <tile gid="99"/>
   <tile gid="166"/>
   <tile gid="166"/>
   <tile gid="199"/>
   <tile gid="230"/>
   <tile gid="100"/>
   <tile gid="166"/>
   <tile gid="199"/>
   <tile gid="15"/>
   <tile gid="961"/>
   <tile gid="199"/>
   <tile gid="198"/>
   <tile gid="230"/>
   <tile gid="166"/>
   <tile gid="99"/>
   <tile gid="99"/>
   <tile gid="686"/>
   <tile gid="133"/>
   <tile gid="77"/>
   <tile gid="7"/>
   <tile gid="7"/>
   <tile gid="7"/>
   <tile gid="46"/>
   <tile gid="166"/>
   <tile gid="166"/>
   <tile gid="198"/>
   <tile gid="744"/>
   <tile gid="230"/>
   <tile gid="45"/>
   <tile gid="83"/>
   <tile gid="82"/>
   <tile gid="15"/>
   <tile gid="99"/>
   <tile gid="993"/>
   <tile gid="199"/>
   <tile gid="930"/>
   <tile gid="931"/>
   <tile gid="932"/>
   <tile gid="685"/>
   <tile gid="686"/>
   <tile gid="137"/>
   <tile gid="7"/>
   <tile gid="170"/>
   <tile gid="47"/>
   <tile gid="166"/>
   <tile gid="166"/>
   <tile gid="166"/>
   <tile gid="592"/>
   <tile gid="425"/>
   <tile gid="434"/>
   <tile gid="993"/>
   <tile gid="103"/>
   <tile gid="7"/>
   <tile gid="7"/>
   <tile gid="685"/>
   <tile gid="198"/>
   <tile gid="99"/>
   <tile gid="962"/>
   <tile gid="963"/>
   <tile gid="964"/>
   <tile gid="133"/>
   <tile gid="230"/>
   <tile gid="103"/>
   <tile gid="115"/>
   <tile gid="110"/>
   <tile gid="199"/>
   <tile gid="198"/>
   <tile gid="686"/>
   <tile gid="494"/>
   <tile gid="556"/>
   <tile gid="492"/>
   <tile gid="498"/>
   <tile gid="680"/>
   <tile gid="686"/>
   <tile gid="114"/>
   <tile gid="7"/>
  </data>
 </layer>
 <layer id="2" name="Map Change 0" width="22" height="14">
  <properties>
   <property name="Height" value="3"/>
   <property name="ID" value="0"/>
   <property name="Width" value="3"/>
   <property name="X" value="2"/>
   <property name="Y" value="0"/>
  </properties>
  <data>
   <tile/>
   <tile/>
   <tile gid="930"/>
   <tile gid="931"/>
   <tile gid="932"/>
   <tile/>
   <tile/>
   <tile/>
   <tile/>
   <tile/>
   <tile/>
   <tile/>
   <tile/>
   <tile/>
   <tile/>
   <tile/>
   <tile/>
   <tile/>
   <tile/>
   <tile/>
   <tile/>
   <tile/>
   <tile/>
   <tile/>
   <tile gid="962"/>
   <tile gid="963"/>
   <tile gid="964"/>
   <tile/>
   <tile/>
   <tile/>
   <tile/>
   <tile/>
   <tile/>
   <tile/>
   <tile/>
   <tile/>
   <tile/>
   <tile/>
   <tile/>
   <tile/>
   <tile/>
   <tile/>
   <tile/>
   <tile/>
   <tile/>
   <tile/>
   <tile gid="994"/>
   <tile gid="995"/>
   <tile gid="996"/>
   <tile/>
   <tile/>
   <tile/>
   <tile/>
   <tile/>
   <tile/>
   <tile/>
   <tile/>
   <tile/>
   <tile/>
   <tile/>
   <tile/>
   <tile/>
   <tile/>
   <tile/>
   <tile/>
   <tile/>
   <tile/>
   <tile/>
   <tile/>
   <tile/>
   <tile/>
   <tile/>
   <tile/>
   <tile/>
   <tile/>
   <tile/>
   <tile/>
   <tile/>
   <tile/>
   <tile/>
   <tile/>
   <tile/>
   <tile/>
   <tile/>
   <tile/>
   <tile/>
   <tile/>
   <tile/>
   <tile/>
   <tile/>
   <tile/>
   <tile/>
   <tile/>
   <tile/>
   <tile/>
   <tile/>
   <tile/>
   <tile/>
   <tile/>
   <tile/>
   <tile/>
   <tile/>
   <tile/>
   <tile/>
   <tile/>
   <tile/>
   <tile/>
   <tile/>
   <tile/>
   <tile/>
   <tile/>
   <tile/>
   <tile/>
   <tile/>
   <tile/>
   <tile/>
   <tile/>
   <tile/>
   <tile/>
   <tile/>
   <tile/>
   <tile/>
   <tile/>
   <tile/>
   <tile/>
   <tile/>
   <tile/>
   <tile/>
   <tile/>
   <tile/>
   <tile/>
   <tile/>
   <tile/>
   <tile/>
   <tile/>
   <tile/>
   <tile/>
   <tile/>
   <tile/>
   <tile/>
   <tile/>
   <tile/>
   <tile/>
   <tile/>
   <tile/>
   <tile/>
   <tile/>
   <tile/>
   <tile/>
   <tile/>
   <tile/>
   <tile/>
   <tile/>
   <tile/>
   <tile/>
   <tile/>
   <tile/>
   <tile/>
   <tile/>
   <tile/>
   <tile/>
   <tile/>
   <tile/>
   <tile/>
   <tile/>
   <tile/>
   <tile/>
   <tile/>
   <tile/>
   <tile/>
   <tile/>
   <tile/>
   <tile/>
   <tile/>
   <tile/>
   <tile/>
   <tile/>
   <tile/>
   <tile/>
   <tile/>
   <tile/>
   <tile/>
   <tile/>
   <tile/>
   <tile/>
   <tile/>
   <tile/>
   <tile/>
   <tile/>
   <tile/>
   <tile/>
   <tile/>
   <tile/>
   <tile/>
   <tile/>
   <tile/>
   <tile/>
   <tile/>
   <tile/>
   <tile/>
   <tile/>
   <tile/>
   <tile/>
   <tile/>
   <tile/>
   <tile/>
   <tile/>
   <tile/>
   <tile/>
   <tile/>
   <tile/>
   <tile/>
   <tile/>
   <tile/>
   <tile/>
   <tile/>
   <tile/>
   <tile/>
   <tile/>
   <tile/>
   <tile/>
   <tile/>
   <tile/>
   <tile/>
   <tile/>
   <tile/>
   <tile/>
   <tile/>
   <tile/>
   <tile/>
   <tile/>
   <tile/>
   <tile/>
   <tile/>
   <tile/>
   <tile/>
   <tile/>
   <tile/>
   <tile/>
   <tile/>
   <tile/>
   <tile/>
   <tile/>
   <tile/>
   <tile/>
   <tile/>
   <tile/>
   <tile/>
   <tile/>
   <tile/>
   <tile/>
   <tile/>
   <tile/>
   <tile/>
   <tile/>
   <tile/>
   <tile/>
   <tile/>
   <tile/>
   <tile/>
   <tile/>
   <tile/>
   <tile/>
   <tile/>
   <tile/>
   <tile/>
   <tile/>
   <tile/>
   <tile/>
   <tile/>
   <tile/>
   <tile/>
   <tile/>
   <tile/>
   <tile/>
   <tile/>
   <tile/>
   <tile/>
   <tile/>
   <tile/>
   <tile/>
   <tile/>
   <tile/>
   <tile/>
   <tile/>
   <tile/>
   <tile/>
   <tile/>
   <tile/>
   <tile/>
   <tile/>
   <tile/>
   <tile/>
   <tile/>
   <tile/>
   <tile/>
   <tile/>
   <tile/>
   <tile/>
   <tile/>
   <tile/>
   <tile/>
   <tile/>
   <tile/>
   <tile/>
   <tile/>
   <tile/>
   <tile/>
  </data>
 </layer>
 <layer id="3" name="Map Change 1" width="22" height="14">
  <properties>
   <property name="Height" value="1"/>
   <property name="ID" value="1"/>
   <property name="Width" value="1"/>
   <property name="X" value="3"/>
   <property name="Y" value="2"/>
  </properties>
  <data>
   <tile/>
   <tile/>
   <tile/>
   <tile/>
   <tile/>
   <tile/>
   <tile/>
   <tile/>
   <tile/>
   <tile/>
   <tile/>
   <tile/>
   <tile/>
   <tile/>
   <tile/>
   <tile/>
   <tile/>
   <tile/>
   <tile/>
   <tile/>
   <tile/>
   <tile/>
   <tile/>
   <tile/>
   <tile/>
   <tile/>
   <tile/>
   <tile/>
   <tile/>
   <tile/>
   <tile/>
   <tile/>
   <tile/>
   <tile/>
   <tile/>
   <tile/>
   <tile/>
   <tile/>
   <tile/>
   <tile/>
   <tile/>
   <tile/>
   <tile/>
   <tile/>
   <tile/>
   <tile/>
   <tile/>
   <tile gid="33"/>
   <tile/>
   <tile/>
   <tile/>
   <tile/>
   <tile/>
   <tile/>
   <tile/>
   <tile/>
   <tile/>
   <tile/>
   <tile/>
   <tile/>
   <tile/>
   <tile/>
   <tile/>
   <tile/>
   <tile/>
   <tile/>
   <tile/>
   <tile/>
   <tile/>
   <tile/>
   <tile/>
   <tile/>
   <tile/>
   <tile/>
   <tile/>
   <tile/>
   <tile/>
   <tile/>
   <tile/>
   <tile/>
   <tile/>
   <tile/>
   <tile/>
   <tile/>
   <tile/>
   <tile/>
   <tile/>
   <tile/>
   <tile/>
   <tile/>
   <tile/>
   <tile/>
   <tile/>
   <tile/>
   <tile/>
   <tile/>
   <tile/>
   <tile/>
   <tile/>
   <tile/>
   <tile/>
   <tile/>
   <tile/>
   <tile/>
   <tile/>
   <tile/>
   <tile/>
   <tile/>
   <tile/>
   <tile/>
   <tile/>
   <tile/>
   <tile/>
   <tile/>
   <tile/>
   <tile/>
   <tile/>
   <tile/>
   <tile/>
   <tile/>
   <tile/>
   <tile/>
   <tile/>
   <tile/>
   <tile/>
   <tile/>
   <tile/>
   <tile/>
   <tile/>
   <tile/>
   <tile/>
   <tile/>
   <tile/>
   <tile/>
   <tile/>
   <tile/>
   <tile/>
   <tile/>
   <tile/>
   <tile/>
   <tile/>
   <tile/>
   <tile/>
   <tile/>
   <tile/>
   <tile/>
   <tile/>
   <tile/>
   <tile/>
   <tile/>
   <tile/>
   <tile/>
   <tile/>
   <tile/>
   <tile/>
   <tile/>
   <tile/>
   <tile/>
   <tile/>
   <tile/>
   <tile/>
   <tile/>
   <tile/>
   <tile/>
   <tile/>
   <tile/>
   <tile/>
   <tile/>
   <tile/>
   <tile/>
   <tile/>
   <tile/>
   <tile/>
   <tile/>
   <tile/>
   <tile/>
   <tile/>
   <tile/>
   <tile/>
   <tile/>
   <tile/>
   <tile/>
   <tile/>
   <tile/>
   <tile/>
   <tile/>
   <tile/>
   <tile/>
   <tile/>
   <tile/>
   <tile/>
   <tile/>
   <tile/>
   <tile/>
   <tile/>
   <tile/>
   <tile/>
   <tile/>
   <tile/>
   <tile/>
   <tile/>
   <tile/>
   <tile/>
   <tile/>
   <tile/>
   <tile/>
   <tile/>
   <tile/>
   <tile/>
   <tile/>
   <tile/>
   <tile/>
   <tile/>
   <tile/>
   <tile/>
   <tile/>
   <tile/>
   <tile/>
   <tile/>
   <tile/>
   <tile/>
   <tile/>
   <tile/>
   <tile/>
   <tile/>
   <tile/>
   <tile/>
   <tile/>
   <tile/>
   <tile/>
   <tile/>
   <tile/>
   <tile/>
   <tile/>
   <tile/>
   <tile/>
   <tile/>
   <tile/>
   <tile/>
   <tile/>
   <tile/>
   <tile/>
   <tile/>
   <tile/>
   <tile/>
   <tile/>
   <tile/>
   <tile/>
   <tile/>
   <tile/>
   <tile/>
   <tile/>
   <tile/>
   <tile/>
   <tile/>
   <tile/>
   <tile/>
   <tile/>
   <tile/>
   <tile/>
   <tile/>
   <tile/>
   <tile/>
   <tile/>
   <tile/>
   <tile/>
   <tile/>
   <tile/>
   <tile/>
   <tile/>
   <tile/>
   <tile/>
   <tile/>
   <tile/>
   <tile/>
   <tile/>
   <tile/>
   <tile/>
   <tile/>
   <tile/>
   <tile/>
   <tile/>
   <tile/>
   <tile/>
   <tile/>
   <tile/>
   <tile/>
   <tile/>
   <tile/>
   <tile/>
   <tile/>
   <tile/>
   <tile/>
   <tile/>
   <tile/>
   <tile/>
   <tile/>
   <tile/>
   <tile/>
   <tile/>
   <tile/>
   <tile/>
   <tile/>
   <tile/>
   <tile/>
   <tile/>
   <tile/>
   <tile/>
  </data>
 </layer>
</map>
